luckincoffee.svg

<svg viewBox="0 0 8 8" version="1.1" xmlns="http://www.w3.org/2000/svg" xmlns:xlink="http://www.w3.org/1999/xlink">
    <title>Combined Shape</title>
    <g id="Page-1" stroke="none" stroke-width="1" fill="none" fill-rule="evenodd">
        <path d="M0.299802618,0.00183519327 C0.380217885,-0.00268800115 0.44724473,0.0553801143 0.456171319,0.135925409 C0.554470444,1.28435804 0.974439403,2.10664148 1.72510559,2.60731936 C1.64910833,2.6653904 1.57310522,2.73235881 1.50616311,2.79948208 C1.9081664,3.08108599 2.40411071,3.27324871 2.98496718,3.38048465 L2.91185408,3.43966731 L2.84202051,3.50552409 C2.6153428,3.38120797 2.35147458,3.31406856 2.10114441,3.32512661 L1.97734235,3.33726941 C1.81440344,3.36240793 1.66123911,3.42385796 1.53288006,3.52784787 C1.78789316,3.81390388 2.05178279,3.9003752 2.2696519,3.90521656 L2.34908839,3.90343605 C2.50321805,3.89314374 2.62760122,3.84522827 2.69907821,3.80945178 C2.77055155,3.78267932 2.82864377,3.76929309 2.86886766,3.76929309 L2.90296924,3.77375517 C2.9215113,3.77970461 2.9314471,3.79160348 2.9314471,3.80945178 C2.34609081,3.77822918 1.90819124,5.06528107 1.90819124,6.51328768 C1.90819124,7.06553816 2.05294731,7.52590201 2.29226299,7.87565303 L2.38634081,8.00158811 C1.27828966,7.50549771 0.505328917,6.38808168 0.505328917,5.09657526 C0.505328917,4.18946732 0.880610878,3.37597899 1.4882179,2.79509329 C0.710843528,2.24071416 0.268531799,1.36031294 0.165766458,0.158247724 C0.161303602,0.0777038904 0.21938735,0.0107325621 0.299802618,0.00183519327 Z M6.3068203,1.6923916 L6.35155612,1.70011176 C6.36623997,1.70504575 6.38052807,1.71237613 6.39391737,1.72221028 C6.45649407,1.77138102 6.46991463,1.86082515 6.42075703,1.92327036 C6.20632898,2.20940331 5.97848913,2.45511095 5.74175191,2.66068546 C6.43413084,3.24179088 6.87639874,4.11782378 6.87639874,5.09638826 C6.87639874,5.76821412 6.66655934,6.39642008 6.30867499,6.90949838 L6.18398183,7.0761624 C5.92040641,6.37464358 5.33066717,6.11083441 4.66500081,6.11083441 C3.8429073,6.11083441 3.45869875,5.78021461 3.45869875,5.16797628 C3.45869875,4.55122353 3.81606909,4.47067969 4.0261142,4.42603214 C4.23601322,4.38138459 4.54436768,4.26509057 4.62036786,4.20264828 C4.6867338,4.15170446 4.66432052,4.01530466 4.56181533,4.02696414 L4.51300628,4.04170671 C4.45407619,4.06674441 4.40870633,4.08319107 4.36803731,4.09191525 L4.30945201,4.09931822 C4.271269,4.10053705 4.23335716,4.09446767 4.18685708,4.08197863 C4.44889482,4.07023321 4.48164954,3.95928893 4.55160346,3.9676073 L4.58463814,3.97911102 C4.62571271,4.00058977 4.65250475,4.00775722 4.67100712,4.00747713 L4.69329252,4.00232932 C4.70500344,3.99631763 4.71142111,3.98629028 4.71853842,3.97911102 C4.77221922,3.9255661 4.70964193,3.89871767 4.76769602,3.79584568 C4.81758515,3.70780242 4.74583427,3.62630031 4.66810179,3.62161981 L4.62927254,3.62600674 L4.56637763,3.63881543 L4.48952806,3.64130723 C4.40534444,3.63949729 4.29862352,3.62606722 4.16454938,3.61258267 C4.05296556,3.59930937 3.89207658,3.52329049 3.73117884,3.45180181 C4.45949204,3.44727861 5.12521685,3.17909526 5.72833866,2.65631275 C5.65234139,2.59371705 5.58086732,2.54002019 5.50049881,2.48647381 C5.74176506,2.28526763 5.96960491,2.03955999 6.18854739,1.74905871 C6.21795166,1.71150129 6.26190326,1.69164587 6.3068203,1.6923916 Z M3.69095076,1.91010897 C4.22263064,1.91010897 4.72747232,2.03967453 5.16975483,2.27211063 C4.90165037,2.72340738 4.45049971,3.04964424 3.92771719,3.15251185 C3.74451029,3.17030951 3.56130338,3.16593592 3.36919911,3.14346181 C3.21735944,3.12566415 3.06988811,3.10334037 2.92693121,3.07196729 C2.5605174,2.93787707 2.24777999,2.6921709 2.03336655,2.3748168 C2.51584063,2.07994791 3.08325608,1.91010897 3.69095076,1.91010897 Z M1.76093759,0.484433448 C1.82336381,0.502231108 1.86362404,0.569351456 1.84583076,0.63194861 C1.76093759,0.962568409 1.71615271,1.19937868 1.71615271,1.34252551 C1.71615271,1.73121926 1.83678291,2.08883798 2.03793358,2.38825124 C1.97567594,2.42561694 1.9135466,2.46674826 1.85491572,2.51176658 C1.86233268,2.54333996 1.89226568,2.57329396 1.92322568,2.60425396 L1.90052577,2.60358811 L1.90798253,2.61452887 C1.9314719,2.64465644 1.95611712,2.67412452 1.98159992,2.7027593 L2.06024274,2.78598993 C1.93961254,2.72791889 1.82335943,2.66532466 1.7161381,2.59382721 C1.75639833,2.56260461 1.79213536,2.53575764 1.8278724,2.5089092 C1.6045835,2.17375598 1.4748923,1.77601876 1.4748923,1.34251674 C1.4748923,1.17706074 1.52404989,0.917926701 1.61346626,0.569351456 C1.63125954,0.506755763 1.69835943,0.466483847 1.76093759,0.484433448 Z M5.54509961,1.56590206 C5.61204902,1.57480147 5.65683391,1.63739658 5.6434148,1.70451693 C5.59862992,1.9547536 5.51373675,2.19154926 5.38873675,2.40166742 L5.40452577,2.41158811 L5.40975726,2.39667651 L5.43884859,2.41889839 C5.45689126,2.43006551 5.47065126,2.43694551 5.47065126,2.45758551 L5.49595224,2.46863291 C5.41251566,2.54012743 5.32914402,2.60572089 5.24441096,2.66532758 L5.11611202,2.75023682 C5.21442721,2.64299504 5.29931892,2.52670686 5.37531911,2.40166158 C5.3083697,2.36138966 5.245793,2.3256424 5.17431747,2.28989514 C5.28590128,2.09773242 5.36642174,1.88762887 5.40652565,1.66424501 C5.41557276,1.59727661 5.47799825,1.55247858 5.54509961,1.56590206 Z" id="Combined-Shape" fill="#0A1A72" fill-rule="nonzero"></path>
    </g>
</svg>

<svg viewBox="0 0 8 8" xmlns="http://www.w3.org/2000/svg"><path d="M.3.002a.148.148 0 0 1 .156.134c.098 1.148.518 1.97 1.27 2.471a2.216 2.216 0 0 0-.22.192c.402.282.898.474 1.479.581l-.073.06-.07.066a1.439 1.439 0 0 0-.74-.18l-.125.011a.922.922 0 0 0-.444.19c.255.287.519.373.737.378l.08-.002a.938.938 0 0 0 .35-.094.528.528 0 0 1 .169-.04l.034.005c.019.006.028.018.028.035-.585-.03-1.023 1.256-1.023 2.704 0 .553.145 1.013.384 1.363l.094.126a3.185 3.185 0 0 1-.898-5.207C.711 2.241.268 1.36.166.158A.148.148 0 0 1 .3.002Zm6.007 1.69.045.008a.143.143 0 0 1 .07.223 4.727 4.727 0 0 1-.68.738 3.174 3.174 0 0 1 1.134 2.435c0 .672-.21 1.3-.567 1.813l-.125.167c-.264-.701-.853-.965-1.519-.965-.822 0-1.206-.33-1.206-.943 0-.617.357-.697.567-.742.21-.045.518-.16.594-.223.067-.051.044-.188-.058-.176l-.049.015a.823.823 0 0 1-.145.05l-.059.007a.413.413 0 0 1-.122-.017c.262-.012.295-.123.365-.114l.033.011a.194.194 0 0 0 .086.028l.022-.005c.012-.006.018-.016.026-.023.053-.053-.01-.08.049-.183.05-.088-.022-.17-.1-.174l-.039.004-.063.013-.076.002c-.085-.002-.191-.015-.325-.028-.112-.014-.273-.09-.434-.161.728-.005 1.394-.273 1.997-.796a2.73 2.73 0 0 0-.228-.17c.242-.2.47-.446.689-.737a.147.147 0 0 1 .118-.057ZM3.69 1.91c.532 0 1.036.13 1.479.362-.268.451-.72.778-1.242.88a2.6 2.6 0 0 1-.559-.009c-.152-.017-.3-.04-.442-.071a1.844 1.844 0 0 1-.894-.697 3.168 3.168 0 0 1 1.658-.465ZM1.761.484a.122.122 0 0 1 .085.148c-.085.33-.13.567-.13.71 0 .39.12.747.322 1.046a1.943 1.943 0 0 0-.183.124c.007.031.037.061.068.092h-.022l.007.01c.023.03.048.06.074.089l.078.083a2.839 2.839 0 0 1-.344-.192l.112-.085a2.089 2.089 0 0 1-.353-1.166c0-.166.049-.425.138-.774a.122.122 0 0 1 .148-.085Zm3.784 1.082a.116.116 0 0 1 .098.139c-.044.25-.13.487-.254.697l.016.01.005-.015.029.022c.018.011.032.018.032.039l.025.01a3.345 3.345 0 0 1-.252.197l-.128.085a2.21 2.21 0 0 0 .26-.348 2.866 2.866 0 0 0-.202-.112 1.92 1.92 0 0 0 .233-.626.116.116 0 0 1 .138-.098Z" fill="#0A1A72" fill-rule="nonzero"/></svg>
